!!!COA:	Martini, Johannes
!!!CDT:	~1440///-~1497//
!!!OTL:	Salve regina
!!!AGN:	Motet
!!!SCT:	Mar2085
!!!SCA:	Mar2085
!!!voices:	4
**kern	**kern	**kern	**kern
*staff4	*staff3	*staff2	*staff1
*Ivox	*Ivox	*Ivox	*Ivox
*I"Bassus	*I"Tenor	*I"Altus	*I"Superius
*I'B	*I'T	*I'A	*I'S
*>[A,B,C,D,E,F,G,H,I]	*>[A,B,C,D,E,F,G,H,I]	*>[A,B,C,D,E,F,G,H,I]	*>[A,B,C,D,E,F,G,H,I]
*>A	*>A	*>A	*>A
*clefF4	*clefGv2	*clefGv2	*clefG2
*M2/1	*M2/1	*M2/1	*M2/1
*met(C)	*met(C)	*met(C)	*met(C)
*k[b-]	*k[b-]	*k[b-]	*k[b-]
=1-	=1-	=1-	=1-
!!section: Salve regina
!!!OMD: Salve regina
0r	0r	0r	1dd
.	.	.	1ee-
=2	=2	=2	=2
0r	0r	1d	1dd
.	.	1e-	1cc
=3	=3	=3	=3
0r	0r	1d	1dd
.	.	1c	2g/
.	.	.	[2a/
=4	=4	=4	=4
1r	0r	2B-\	4a/]
.	.	.	4g/
.	.	2G/	1g
1D	.	1A	.
.	.	.	2f#i/
=5	=5	=5	=5
1E-	1G	1G	1g
1D	1F	2A/	1r
.	.	2B-\	.
=6	=6	=6	=6
1C	1G	2.c\	0r
.	.	4B-\	.
2BB-/	1B-	4A/	.
.	.	4G/	.
2GG/	.	[2G/	.
=7	=7	=7	=7
1AA	1c	2G/]	1r
.	.	2F#i/	.
1GG	1B-	1G	1dd
=8	=8	=8	=8
1F	1A	1r	2cc\
.	.	.	2cc\
2G\	1B-	2.d\	2b-\
2B-\	.	.	2g/
.	.	4e\	.
=9	=9	=9	=9
1F	1c	2.f\	1a
.	.	8e\L	.
.	.	8d\J	.
2G\	2B-\	4e\	1g
.	.	4d\	.
2E\	2G/	[2g\	.
=10	=10	=10	=10
1D	1A	2g\]	2r
.	.	2f#i\	2a/
2r	1G	2.g\	1b-
2E-\	.	.	.
.	.	4fni\	.
=11	=11	=11	=11
1C	1G	4e\	2.cc\
.	.	4d\	.
.	.	2.c\	.
.	.	.	4b-\
2F\	1r	.	4a/
.	.	4G/	4g/
2G\	.	2B-\	[2g/
=12	=12	=12	=12
1D	0r	1A	2g/]
.	.	.	2f#i/
1GG	.	1G	1g
=13	=13	=13	=13
0r	1B-	0r	2r
.	.	.	1f
.	1B-	.	.
.	.	.	2g/
=14	=14	=14	=14
0r	1A	0r	2a/
.	.	.	2f/
.	1G	.	2g/
.	.	.	[2b-\
=15	=15	=15	=15
1D	1F	1r	2b-\]
.	.	.	2a/
2BB-/	1B-	2r	1b-
[2D\	.	[2F/	.
=16	=16	=16	=16
4D\]	1B-	2F/]	0r
4C/	.	.	.
2BB-/	.	2G/	.
2AA/	2c\	2A/	.
[2BB-/	[2d\	2F/	.
=17	=17	=17	=17
2BB-/]	4d\]	2G/	1r
.	4c\	.	.
2BB-/	2d\	2.B-\	.
1C	1e-i	.	1cc
.	.	4G/	.
.	.	2A/	.
=18	=18	=18	=18
1BB-	1d	2B-\	1dd
.	.	1d	.
1E-	1r	.	1g
.	.	2c\	.
=19	=19	=19	=19
1D	0r	2d\	2r
.	.	2.f\	1a
2F\	.	.	.
.	.	4e\	.
2G\	.	[2d\	[2b-\
=20	=20	=20	=20
1E-i	0r	2d\]	4b-\]
.	.	.	4a/
.	.	2c\	4g/
.	.	.	4f/
2D\	.	[1d	2b-\
2F\	.	.	[2a/
=21	=21	=21	=21
2G\	0r	2d\]	4a/]
.	.	.	4g/
2B-\	.	2r	1g
1A	.	1r	.
.	.	.	2f#i/
=22	=22	=22	=22
1G	0r	2d\	1g
.	.	2.e-i\	.
2F\	.	.	1r
.	.	4d\	.
2D\	.	[2d\	.
=23	=23	=23	=23
1E-i	0r	2d\]	0r
.	.	2c\	.
1D	.	1d	.
=24	=24	=24	=24
0r	0r	1G	2dd\
.	.	.	2.ee-\
.	.	2g\	.
.	.	.	4dd\
.	.	2f\	[2dd\
=25	=25	=25	=25
1r	1r	1e-i	2dd\]
.	.	.	2cc\
2GG/	1d	1d	1dd
[2GG/	.	.	.
=26	=26	=26	=26
4GG/]	1d	0r	1g
4AA/	.	.	.
2BB-/	.	.	.
2C/	1c	.	1r
[2E-i\	.	.	.
=27	=27	=27	=27
2E-\]	2B-\	0r	1r
2D\	2.d\	.	.
1BB-	.	.	1dd
.	4c\	.	.
.	[2B-\	.	.
=28	=28	=28	=28
1F	2B-\]	1r	1cc
.	2A/	.	.
1G	1B-	2.d\	1b-
.	.	4e\	.
=29	=29	=29	=29
2F\	0r	2f\	2a/
2E\	.	2g\	2g/
2F\	.	1c	4a/
.	.	.	4b-\
2A\	.	.	[2cc\
=30	=30	=30	=30
1G	0r	1d	2cc\]
.	.	.	2bni\
1C	.	1c	1cc
=31	=31	=31	=31
0r	0r	2f\	2a/
.	.	2d\	2.b-\
.	.	2e\	.
.	.	.	4a/
.	.	[2g\	2g/
=32	=32	=32	=32
2r	0r	2g\]	1a
2F\	.	2f\	.
2G\	.	1d	1g
[2B-\	.	.	.
=33	=33	=33	=33
2B-\]	0r	2r	0r
2A\	.	2F/	.
2B-\	.	2G/	.
2G\	.	[2B-\	.
=34	=34	=34	=34
1F	1r	4B-\]	1r
.	.	4G/	.
.	.	2A/	.
1BB-	1B-	1B-	1f
=35	=35	=35	=35
2E-\	0B-	2r	2g/
2D\	.	2.d\	1f
1BB-	.	.	.
.	.	4c\	.
.	.	2d\	2g/
=36	=36	=36	=36
1F	1A	2c\	2a/
.	.	2.f\	2.cc\
1G	1B-	.	.
.	.	4d\	4b-\
.	.	2e\	[2b-\
=37	=37	=37	=37
0F	0c	0f	2b-\]
.	.	.	2a/
.	.	.	2.a/
.	.	.	4g/
=38	=38	=38	=38
0BB-	0B-	2.d\	1b-
.	.	4e\	.
.	.	2f\	1r
.	.	[2g\	.
=39	=39	=39	=39
1r	1A	2g\]	2.cc\
.	.	2f\	.
.	.	.	4b-\
2r	[1G	2g\	1dd
2GG/	.	2d\	.
=40	=40	=40	=40
2C/	2G/]	2e-i\	2g/
2AA/	2F/	2c\	2a/
2GG/	2G/	2B-\	2b-\
2D\	2F/	2r	[2a/
=41	=41	=41	=41
2BB-/	1B-	0d	4a/]
.	.	.	4g/
2GG/	.	.	1g
1D	1A	.	.
.	.	.	2f#i/
=42	=42	=42	=42
0GGl	0Gl	0dl	0gl
!!LO:LB:i:g=z
=43||	=43||	=43||	=43||
*>B	*>B	*>B	*>B
*clefF4	*clefGv2	*clefGv2	*clefG2
*M2/1	*M2/1	*M2/1	*M2/1
*met(C)	*met(C)	*met(C)	*met(C)
*k[b-]	*k[b-]	*k[b-]	*k[b-]
!!section: Ad te clamamus
!!!OMD: Ad te clamamus
0r	0r	1B-	0r
.	.	1c	.
=44	=44	=44	=44
0r	0r	1d	1b-
.	.	1e-i	1cc
=45	=45	=45	=45
1BB-	0r	2d\	1dd
.	.	1g	.
1C	.	.	1cc
.	.	4f\	.
.	.	4e\	.
=46	=46	=46	=46
1D	1B-	1d	2b-\
.	.	.	2a/
1E-	1c	1G	1g
=47	=47	=47	=47
1D	0d	1A	1f
1BB-	.	1B-	2d/
.	.	.	2f/
=48	=48	=48	=48
1C	1c	1.G	2e/
.	.	.	2.g/
1C	1c	.	.
.	.	.	4f/
.	.	2A/	4e/
.	.	.	4d/
=49	=49	=49	=49
1D	1B-	2.F/	2.f/
.	.	4E/	4g/
1C	1c	2G/	1e
.	.	2A/	.
=50	=50	=50	=50
1BB-	1d	3%2B-V	2d/
.	.	.	2r
.	.	3G/Z	.
1AA	1A	3A/V	1cc
.	.	3E/	.
.	.	3F#i/Z	.
=51	=51	=51	=51
1GG	1r	3.G/V	1b-
.	.	6A/	.
.	.	3B-\Z	.
1r	1c	3.F/V	1a
.	.	6E/	.
.	.	3F/Z	.
=52	=52	=52	=52
0r	1B-	3.G/V	1g
.	.	6A/	.
.	.	3B-\Z	.
.	1A	3%2cV	2a/
.	.	.	[2cc\
.	.	[3e-i\Z	.
=53	=53	=53	=53
1r	1G	3e-\]V	2cc\]
.	.	3%2dZ	.
.	.	.	2bni\
1C	2r	1c	1cc
.	2A/	.	.
=54	=54	=54	=54
1C	2G/	1e	1r
.	1c	.	.
1D	.	1d	1f
.	2Bni\	.	.
=55	=55	=55	=55
1C	1c	2r	2e/
.	.	2G/	2.g/
1C	1r	2A/	.
.	.	.	4f/
.	.	[2c\	2e/
=56	=56	=56	=56
1GG	0r	2c\]	1d
.	.	2Bni\	.
1r	.	1c	1c
=57	=57	=57	=57
0r	0r	2A/	1f
.	.	2.B-\	.
.	.	.	1g
.	.	4G/	.
.	.	2c\	.
=58	=58	=58	=58
0r	1r	2B-\	1g
.	.	2e-\	.
.	1F	2d\	2f/
.	.	2f\	2a/
=59	=59	=59	=59
0r	1G	2e-i\	2b-\
.	.	2d\	2.dd\
.	1G	2B-\	.
.	.	.	4cc\
.	.	2B-\	[2b-\
=60	=60	=60	=60
0r	1F	1c	2b-\]
.	.	.	2a/
.	2.G/	1B-	2b-\
.	.	.	4a/
.	4A/	.	4g/
=61	=61	=61	=61
1BB-	1B-	1d	2f/
.	.	.	2g/
1AA	1c	2e\	1a
.	.	2f\	.
=62	=62	=62	=62
1BB-	0B-	1d	2g/
.	.	.	2f/
2GG/	.	2B-\	1b-
[2GG/	.	2d\	.
=63	=63	=63	=63
2GG/]	1A	2e\	1cc
2FF#i/	.	2f\	.
1GG	2G/	2B-\	2.b-\
.	[2B-\	[2d\	.
.	.	.	4cc\
=64	=64	=64	=64
2BB-/	4B-\]	2d\]	2dd\
.	4A/	.	.
2C/	1G	1c	2g/
1AA	.	.	2a/
.	2F#i/	2A/	2cc\
=65	=65	=65	=65
1GG	2G/	2.B-\	4b-\
.	.	.	4a/
.	2B-\	.	4g/
.	.	4G/	4f/
1r	2c\	2A/	2e/
.	2d\	2F/	[2d/
=66	=66	=66	=66
0r	2B-\	2G/	2d/]
.	2G/	2E/	1g
.	1A	1D	.
.	.	.	2f#i/
=67	=67	=67	=67
0GGl	0Gl	0dl	0gl
!!LO:LB:i:g=z
=68||	=68||	=68||	=68||
*>C	*>C	*>C	*>C
*clefF4	*clefGv2	*clefGv2	*clefG2
*M2/1	*M2/1	*M2/1	*M2/1
*met(C)	*met(C)	*met(C)	*met(C)
*k[b-]	*k[b-]	*k[b-]	*k[b-]
!!section: Ad te supiramus
!!!OMD: Ad te supiramus
0r	1B-	0B-	0b-
.	1G	.	.
=69	=69	=69	=69
0r	1F	0c	1a
.	1E	.	1g
=70	=70	=70	=70
0r	2D/	0d	2f/
.	2.G/	.	2.b-\
.	4A/	.	4a/
.	[2B-\	.	2f/
=71	=71	=71	=71
0r	2B-\]	1r	2g/
.	4A/	.	1a
.	4G/	.	.
.	2F/	1f	.
.	2D/	.	2b-\
=72	=72	=72	=72
0r	2.E-/	1c	4cc\
.	.	.	4b-\
.	.	.	4a/
.	4D/	.	4g/
.	1BB-	1d	2f/
.	.	.	[2b-\
=73	=73	=73	=73
0r	1F	1c	4b-\]
.	.	.	4a/
.	.	.	1a
.	1G	1B-	.
.	.	.	2g/
=74	=74	=74	=74
0r	1.F	2A/	1a
.	.	2.c\	.
.	.	.	1r
.	.	4A/	.
.	2D/	[2d\	.
=75	=75	=75	=75
0r	1E	2d\]	1g
.	.	2c#i\	.
.	2D/	1d	2f/
.	[2G/	.	[2b-\
=76	=76	=76	=76
0r	2G/]	0r	2b-\]
.	2F/	.	2a/
.	2B-\	.	2g/
.	2c\	.	[2a/
=77	=77	=77	=77
0r	2d\	0r	4a/]
.	.	.	4g/
.	2B-\	.	1g
.	1A	.	.
.	.	.	2f#i/
=78	=78	=78	=78
1r	2G/	[0G	1.g
.	2.B-\	.	.
1GG	.	.	.
.	4c\	.	.
.	[2d\	.	4f/
.	.	.	4e/
=79	=79	=79	=79
1BB-	4d\]	1G]	1d
.	4c\	.	.
.	2.B-\	.	.
1GG	.	[1B-	1r
.	4A/	.	.
.	4G/	.	.
.	4F/	.	.
=80	=80	=80	=80
1GG	2.E/	1B-]	1g
.	4D/	.	.
1FF	1F	1c	1a
=81	=81	=81	=81
1BB-	2.D/	0r	2f/
.	.	.	2.b-\
.	4E/	.	.
1BB-	2F/	.	.
.	.	.	4a/
.	2G/	.	4g/
.	.	.	4f/
=82	=82	=82	=82
1C	2A/	0r	1e
.	1c	.	.
1D	.	.	1f
.	2Bni\	.	.
=83	=83	=83	=83
1C	0c	1G	3%2eV
.	.	.	3f/Z
1C	.	1A	3g/V
.	.	.	3f/
.	.	.	3e/Z
=84	=84	=84	=84
1BB-	1F	1B-	2.d/
.	.	.	4e/
1r	2D/	[1B-	2f/
.	[2E-/	.	[2g/
=85	=85	=85	=85
0r	2E-/]	2B-\]	4g/]
.	.	.	4f/
.	2F/	2A/	1f
.	1C	1G	.
.	.	.	2e/
=86	=86	=86	=86
1BB-	2D/	1F	1.f
.	2.F/	.	.
1D	.	1r	.
.	4G/	.	.
.	4A/	.	2d/
.	4B-\	.	.
=87	=87	=87	=87
0C	0c	1G	2e/
.	.	.	2f/
.	.	1G	2.g/
.	.	.	4f/
=88	=88	=88	=88
1D	1A	1F	1d
1BB-	2B-\	2.G/	2r
.	[2G/	.	[2b-\
.	.	4A/	.
=89	=89	=89	=89
1GG	4G/]	2.B-\	4b-\]
.	4A/	.	4cc\
.	1B-	.	2.dd\
.	.	4c\	.
1r	.	2d\	.
.	.	.	4cc\
.	2E-/	2e-\	[2b-\
=90	=90	=90	=90
1r	2.F/	1c	2b-\]
.	.	.	2a/
.	4G/	.	.
1BB-	2F/	2B-\	1b-
.	2D/	[2d\	.
=91	=91	=91	=91
1AA	1E	2d\]	1r
.	.	2c\	.
1BB-	2D/	1d	2f/
.	2G/	.	2g/
=92	=92	=92	=92
2AA/	2F/	1r	2a/
1GG	2G/	.	2b-\
.	1A	2r	2cc\
2FF#i/	.	2c\	2a/
=93	=93	=93	=93
1GG	1G	2B-\	1b-
.	.	2G/	.
1r	2F/	2A/	2a/
.	2E/	[2c\	2g/
=94	=94	=94	=94
0r	1D	2c\]	2f/
.	.	2B-\	2d/
.	2C/	2c\	2e/
.	2E-/	2G/	[2g/
=95	=95	=95	=95
0r	1D	1A	2g/]
.	.	.	2f#i/
.	2r	2G/	1g
.	2G/	2B-\	.
=96	=96	=96	=96
0r	2F/	2A/	2a/
.	2D/	2d\	2b-\
.	2E/	2c\	1g
.	[2G/	2B-\	.
=97	=97	=97	=97
0r	2G/]	1A	1cc
.	2F/	.	.
.	2G/	2G/	2b-\
.	2A/	[2c\	[2a/
=98	=98	=98	=98
0r	2F/	2c\]	4a/]
.	.	.	4g/
.	2G/	2B-\	1g
.	1D	1A	.
.	.	.	2f#i/
=99	=99	=99	=99
*	*^	*	*
0GGl	0Gl\	0dl/	0Gl	0gl
*	*v	*v	*	*
!!LO:LB:i:g=z
=100||	=100||	=100||	=100||
*>D	*>D	*>D	*>D
*clefF4	*clefGv2	*clefGv2	*clefG2
*M2/1	*M2/1	*M2/1	*M2/1
*met(C|)	*met(C|)	*met(C|)	*met(C|)
*k[b-]	*k[b-]	*k[b-]	*k[b-]
!!section: Eya ergo
!!!OMD: Eya ergo
0r	0r	2G/	[0b-
.	.	2.B-\	.
.	.	4c\	.
.	.	2d\	.
=101	=101	=101	=101
2GG/	0r	2e-i\	0b-_
2.BB-/	.	2.d\	.
4C/	.	4eni\	.
2D\	.	2f\	.
=102	=102	=102	=102
2E-i\	0r	2g\	0b-_
2.D\	.	4f\	.
.	.	4e\	.
.	.	1d	.
4Eni\	.	.	.
2F\	.	.	.
=103	=103	=103	=103
2G\	0r	2e-i\	0b-]
4F\	.	2.d\	.
4E\	.	.	.
1D	.	.	.
.	.	4c\	.
.	.	4B-\	.
.	.	4A/	.
=104	=104	=104	=104
2E-i\	0r	2G/	[0b-
2.D\	.	2.d\	.
4C/	.	4e\	.
4BB-/	.	2f\	.
4AA/	.	.	.
=105	=105	=105	=105
2GG/	0r	2g\	0b-_
2.D\	.	2f\	.
.	.	1d	.
4E\	.	.	.
2F\	.	.	.
=106	=106	=106	=106
2G\	0r	0r	0b-]
2F\	.	.	.
1D	.	.	.
=107	=107	=107	=107
0r	0r	2A/	[0cc
.	.	2.c\	.
.	.	4d\	.
.	.	2e\	.
=108	=108	=108	=108
2AA/	0r	2f\	0cc_
2.C/	.	2.e\	.
4D\	.	4d\	.
2E\	.	4c\	.
.	.	4B-\	.
=109	=109	=109	=109
2F\	0r	2A/	0cc_
2.E\	.	2.c\	.
4D\	.	4B-\	.
4C/	.	4A/	.
4BB-/	.	4G/	.
=110	=110	=110	=110
2AA/	0r	2F/	0cc]
2GG/	.	1G	.
1AA	.	.	.
.	.	2F#i/	.
=111	=111	=111	=111
1GG	0r	2G/	0b-
.	.	1d	.
2r	.	.	.
2GG/	.	2e\	.
=112	=112	=112	=112
2.D\	0r	2f\	0a
.	.	1d	.
4E\	.	.	.
2F\	.	.	.
4E\	.	4c\	.
4D\	.	4B-\	.
=113	=113	=113	=113
2C/	0r	2A/	0cc
2BB-/	.	1B-	.
1C	.	.	.
.	.	2A/	.
=114	=114	=114	=114
1BB-	0r	0B-	[0dd
2r	.	.	.
[2D\	.	.	.
=115	=115	=115	=115
4D\]	0r	0r	0dd]
4E\	.	.	.
2F\	.	.	.
2G\	.	.	.
[2B-\	.	.	.
=116	=116	=116	=116
4B-\]	0r	[0B-	0r
4A\	.	.	.
4G\	.	.	.
4F\	.	.	.
2G\	.	.	.
2D\	.	.	.
=117	=117	=117	=117
2E-\	0r	0B-]	0r
4D\	.	.	.
4C/	.	.	.
2BB-/	.	.	.
[2B-\	.	.	.
=118	=118	=118	=118
2B-\]	0r	0c	0r
4A\	.	.	.
4G\	.	.	.
4A\	.	.	.
4G\	.	.	.
4F\	.	.	.
4E\	.	.	.
=119	=119	=119	=119
2D\	0r	0B-	0r
2.G\	.	.	.
4A\	.	.	.
4B-\	.	.	.
4G\	.	.	.
=120	=120	=120	=120
2c\	0r	0A	0r
2.F\	.	.	.
4G\	.	.	.
4A\	.	.	.
4F\	.	.	.
=121	=121	=121	=121
3%2AV	0r	0c	1r
3G\Z	.	.	.
3F\V	.	.	2r
3%2EZ	.	.	.
.	.	.	2g/
=122	=122	=122	=122
2D\	0r	[0d	2f/
2.G\	.	.	2.b-\
4A\	.	.	4cc\
[2B-\	.	.	[2dd\
=123	=123	=123	=123
2B-\]	0r	0d]	2dd\]
4A\	.	.	4cc\
4G\	.	.	4b-\
2.F#i\	.	.	1a
4E\	.	.	.
=124	=124	=124	=124
1G	0r	1r	2.d/
.	.	.	4e/
1r	.	2.d\	2f/
.	.	.	2g/
.	.	4e\	.
=125	=125	=125	=125
[0BB-	0r	2f\	2f/
.	.	2g\	2.d/
.	.	2f\	.
.	.	.	4e/
.	.	[2d\	2f/
=126	=126	=126	=126
0BB-]	0r	4d\]	2B-/
.	.	4e\	.
.	.	1f	2.d/
.	.	.	4e/
.	.	[2B-\	2f/
=127	=127	=127	=127
0C	0r	2B-\]	2e/
.	.	4A/	1g
.	.	4G/	.
.	.	1A	.
.	.	.	4f/
.	.	.	4e/
=128	=128	=128	=128
0BB-	0r	2r	2d/
.	.	1d	1f
.	.	4c\	2g/
.	.	4B-\	.
=129	=129	=129	=129
0AA	0r	2c\	2.a/
.	.	2.A/	.
.	.	.	4b-\
.	.	.	[1cc
.	.	4B-\	.
.	.	4c\	.
.	.	4d\	.
=130	=130	=130	=130
0C	0r	2e\	2cc\]
.	.	2f\	4b-\
.	.	.	4a/
.	.	1e	1g
=131	=131	=131	=131
[0D	0r	2r	1f
.	.	2A/	.
.	.	2B-\	2r
.	.	[2d\	2a/
=132	=132	=132	=132
0D_	0r	4d\]	2b-\
.	.	4c\	.
.	.	4B-\	2.dd\
.	.	4A/	.
.	.	2B-\	.
.	.	.	4cc\
.	.	4A/	4b-\
.	.	4G/	4a/
=133	=133	=133	=133
0D]	0r	2F/	2b-\
.	.	2B-\	4a/
.	.	.	4g/
.	.	2A/	2f/
.	.	[2d\	[2b-\
=134	=134	=134	=134
0r	0r	2d\]	2b-\]
.	.	2c\	2a/
.	.	1B-	2.g/
.	.	.	4f/
=135	=135	=135	=135
*	*	*	*^
0Dl	0r	0Al	0fl\	0al/
*	*	*	*v	*v
!!LO:LB:i:g=z
=136||	=136||	=136||	=136||
*>E	*>E	*>E	*>E
*clefF4	*clefGv2	*clefGv2	*clefG2
*M2/1	*M2/1	*M2/1	*M2/1
*met(C)	*met(C)	*met(C)	*met(C)
*k[b-]	*k[b-]	*k[b-]	*k[b-]
!!section: Ad vocata
!!!OMD: Ad vocata
2.GG/	0r	[0G	1g
4AA/	.	.	.
2BB-/	.	.	[1g
[2C/	.	.	.
=137	=137	=137	=137
2C/]	0r	0G]	2g/]
2D\	.	.	2f/
1E-	.	.	1g
=138	=138	=138	=138
1D	0f	0d	1a
1BB-	.	.	[1b-
=139	=139	=139	=139
0F	0c	1r	2b-\]
.	.	.	4a/
.	.	.	4g/
.	.	[1f	1a
=140	=140	=140	=140
1BB-	1d	0f]	1b-
1F	1c	.	1a
=141	=141	=141	=141
0G	1B-	0d	2g/
.	.	.	2.b-\
.	1G	.	.
.	.	.	4a/
.	.	.	[2g/
=142	=142	=142	=142
0r	0A	0c	2g/]
.	.	.	4f#i/
.	.	.	4e/
.	.	.	1f#i
=143	=143	=143	=143
2GG/	0G	1d	1g
2BB-/	.	.	.
2C/	.	1c	1r
[2E-i\	.	.	.
=144	=144	=144	=144
4E-\]	0r	1B-	0r
4D\	.	.	.
2G\	.	.	.
2F\	.	[1d	.
[2B-\	.	.	.
=145	=145	=145	=145
4B-\]	0r	2d\]	1r
4A\	.	.	.
4G\	.	2c\	.
4F\	.	.	.
1E-i	.	2.c\	1g
.	.	4B-\	.
=146	=146	=146	=146
1D	0r	0d	1f
1F	.	.	1a
=147	=147	=147	=147
2E\	0c	0r	2g/
2.C/	.	.	2.e/
4D\	.	.	4f/
2E\	.	.	2g/
=148	=148	=148	=148
2D\	1A	0r	2f/
2F\	.	.	1a
2E\	1B-	.	.
2G\	.	.	2g/
=149	=149	=149	=149
2F\	0c	0r	2a/
2G\	.	.	4g/
.	.	.	4f/
1A	.	.	1e
=150	=150	=150	=150
2.D\	0d	0r	1d
4E\	.	.	.
2F\	.	.	1r
[2G\	.	.	.
=151	=151	=151	=151
4G\]	0r	0r	1g
4F\	.	.	.
4E\	.	.	.
4D\	.	.	.
2C/	.	.	1g
2E-i\	.	.	.
=152	=152	=152	=152
2D\	0r	0r	2f/
4C/	.	.	4e/
4BB-/	.	.	4d/
2C/	.	.	2e/
2BB-/	.	.	[2d/
=153	=153	=153	=153
1GG	0r	0r	2d/]
.	.	.	1g
1AA	.	.	.
.	.	.	2f#i/
=154	=154	=154	=154
2GG/	0r	0r	1g
1G	.	.	.
.	.	.	1d
2F\	.	.	.
=155	=155	=155	=155
1G	1g	1B-	0r
1C	1g	[1c	.
=156	=156	=156	=156
1F	2f\	1c]	0r
.	4e\	.	.
.	4d\	.	.
1G	2e\	1B-	.
.	[2d\	.	.
=157	=157	=157	=157
2F\	2d\]	2A/	0r
2E\	1g	2G/	.
1D	.	1A	.
.	2f#i\	.	.
=158	=158	=158	=158
0GG	1g	1G	1r
.	1d	1B-	1g
=159	=159	=159	=159
0BB-	0r	1B-	1f
.	.	1F	1d
=160	=160	=160	=160
1C	1g	0r	2c/
.	.	.	2e/
2D\	1f	.	2d/
2F\	.	.	[2c/
=161	=161	=161	=161
1G	1d	0r	2c/]
.	.	.	2Bni/
1C	2c\	.	1c
.	2e\	.	.
=162	=162	=162	=162
2BB-/	2d\	0r	1r
2C/	1c	.	.
1D	.	.	1f
.	2Bni\	.	.
=163	=163	=163	=163
1C	1c	1A	1e
1BB-	1d	1B-	3d/V
.	.	.	3e/
.	.	.	3f/Z
=164	=164	=164	=164
1r	1e	1c	2g/
.	.	.	2a/
1BB-	1d	1B-	2b-\
.	.	.	[2g/
=165	=165	=165	=165
1C	1c	1G	2g/]
.	.	.	1cc
2GG/	1d	1r	.
2G\	.	.	2bni\
=166	=166	=166	=166
2A\	0c	0r	1cc
1F	.	.	.
.	.	.	2a/
2F\	.	.	2cc\
=167	=167	=167	=167
1G	0r	1B-	2b-\
.	.	.	1g
1D	.	1A	.
.	.	.	2f#i/
=168	=168	=168	=168
2GG/	0G	1B-	2g/
2.BB-/	.	.	4f/
.	.	.	4e/
.	.	1r	1d
4AA/	.	.	.
[2GG/	.	.	.
=169	=169	=169	=169
2GG/]	1A	0r	1r
2FF#i/	.	.	.
2GG/	1B-	.	1g
[2G\	.	.	.
=170	=170	=170	=170
2G\]	1A	0r	1a
2F\	.	.	.
2G\	[1G	.	2b-\
[2E-\	.	.	[2g/
=171	=171	=171	=171
2E-\]	1G]	0r	4g/]
.	.	.	4f/
2D\	.	.	1f
1C	1G	.	.
.	.	.	2e/
=172	=172	=172	=172
2r	1F	1c	0f
2AA/	.	.	.
2BB-/	1r	1B-	.
2C/	.	.	.
=173	=173	=173	=173
1D	1F	1A	0r
2GG/	1G	2G/	.
[2GG/	.	[2B-\	.
=174	=174	=174	=174
4GG/]	1B-	4B-\]	0r
4FF/	.	4A/	.
2BB-/	.	1G	.
1AA	1c	.	.
.	.	2F#i/	.
=175	=175	=175	=175
2GG/	1B-	1G	0r
2G\	.	.	.
2F\	2A/	1r	.
4E\	[2d\	.	.
4D\	.	.	.
=176	=176	=176	=176
1E	2d\]	0r	1r
.	2c#i\	.	.
1D	1d	.	1f
=177	=177	=177	=177
2C/	2r	0r	1g
2.G\	2e\	.	.
.	2d\	.	1b-
4F\	.	.	.
2G\	[2g\	.	.
=178	=178	=178	=178
1A	2g\]	0r	1cc
.	2f#i\	.	.
1G	2g\	.	1b-
.	2d\	.	.
=179	=179	=179	=179
2D\	1f	0r	2a/
2F\	.	.	1dd
2G\	1e	.	.
2A\	.	.	2cc#i\
=180	=180	=180	=180
1D	1d	0r	1dd
1GG	1r	.	1r
=181	=181	=181	=181
2AA/	1r	0r	0r
2.BB-/	.	.	.
.	1G	.	.
4GG/	.	.	.
2BB-/	.	.	.
=182	=182	=182	=182
2AA/	2A/	0r	1r
2GG/	2.B-\	.	.
2r	.	.	1g
.	4G/	.	.
2G\	2B-\	.	.
=183	=183	=183	=183
2F\	2A/	0r	2a/
2.G\	2G/	.	2.b-\
.	2r	.	.
4F\	.	.	4g/
2D\	[2d\	.	2b-\
=184	=184	=184	=184
2F\	2d\]	0r	2a/
2E\	2e\	.	2g/
2D\	2.f\	.	2a/
2r	.	.	[2cc\
.	4d\	.	.
=185	=185	=185	=185
1A	2f\	0r	4cc\]
.	.	.	4a/
.	2e\	.	2cc\
2B-\	1d	.	2b-\
[2F\	.	.	[2a/
=186	=186	=186	=186
4F\]	2c\	0r	4a/]
4E\	.	.	4g/
2G\	2B-\	.	1g
1D	1A	.	.
.	.	.	2f#i/
=187	=187	=187	=187
0GGl	0Gl	0r	0gl
!!LO:LB:i:g=z
=188||	=188||	=188||	=188||
*>F	*>F	*>F	*>F
*clefF4	*clefGv2	*clefGv2	*clefG2
*M2/1	*M2/1	*M2/1	*M2/1
*met(C|)	*met(C|)	*met(C|)	*met(C|)
*k[b-]	*k[b-]	*k[b-]	*k[b-]
!!section: Et Jesum
!!!OMD: Et Jesum
0r	0r	1G	0g
.	.	2G/	.
.	.	[2B-\	.
=189	=189	=189	=189
0r	0r	4B-\]	0d
.	.	4c\	.
.	.	4d\	.
.	.	4e\	.
.	.	2f\	.
.	.	[2d\	.
=190	=190	=190	=190
0r	0r	2d\]	[0f
.	.	4c\	.
.	.	4B-\	.
.	.	2A/	.
.	.	[2d\	.
=191	=191	=191	=191
0r	0r	4d\]	0f]
.	.	4c\	.
.	.	2B-\	.
.	.	1A	.
=192	=192	=192	=192
0r	0r	0G	1g
.	.	.	2G/
.	.	.	[2B-/
=193	=193	=193	=193
0r	0r	0D	4B-/]
.	.	.	4c/
.	.	.	4d/
.	.	.	4e/
.	.	.	2f/
.	.	.	[2d/
=194	=194	=194	=194
0r	0r	[0F	2d/]
.	.	.	4c/
.	.	.	4B-/
.	.	.	2A/
.	.	.	[2d/
=195	=195	=195	=195
0r	0r	0F]	4d/]
.	.	.	4c/
.	.	.	2B-/
.	.	.	1A
=196	=196	=196	=196
1GG	0G	0G	0r
2GG/	.	.	.
[2BB-/	.	.	.
=197	=197	=197	=197
4BB-/]	0D	0r	0r
4C/	.	.	.
4D\	.	.	.
4E\	.	.	.
2F\	.	.	.
[2D\	.	.	.
=198	=198	=198	=198
2D\]	[0F	0r	0r
4C/	.	.	.
4BB-/	.	.	.
2AA/	.	.	.
[2D\	.	.	.
=199	=199	=199	=199
4D\]	0F]	0r	0r
4C/	.	.	.
2BB-/	.	.	.
1AA	.	.	.
=200	=200	=200	=200
0GG	0G	0r	0r
=201	=201	=201	=201
0G	2r	0r	0r
.	1B-	.	.
.	2c\	.	.
=202	=202	=202	=202
0D	2d\	0r	0r
.	2e\	.	.
.	2f\	.	.
.	[2d\	.	.
=203	=203	=203	=203
[0F	2d\]	0r	0r
.	4c\	.	.
.	4B-\	.	.
.	2A/	.	.
.	[2d\	.	.
=204	=204	=204	=204
0F]	4d\]	0r	0r
.	4c\	.	.
.	2B-\	.	.
.	2A/	.	.
.	4G/	.	.
.	4F/	.	.
=205	=205	=205	=205
1G	2.E/	0r	0r
.	4C/	.	.
1B-	[1G	.	.
=206	=206	=206	=206
0A	2G/]	0r	0r
.	2F#i/	.	.
.	2F#i/	.	.
.	2E/	.	.
=207	=207	=207	=207
1G	0G	1.B-	1.g
2r	.	.	.
[2C/	.	2c\	2a/
=208	=208	=208	=208
2C/]	[0G	1d	4b-\
.	.	.	4a/
2BB-/	.	.	4g/
.	.	.	4f/
2C/	.	2r	2e/
[2E-i\	.	[2c\	[2g/
=209	=209	=209	=209
2E-\]	0G_	2c\]	4g/]
.	.	.	4a/
2D\	.	2B-\	2b-\
2.C/	.	2c\	2g/
.	.	[2e-\	[2cc\
4BB-/	.	.	.
=210	=210	=210	=210
1GG	0G_	2e-\]	2cc\]
.	.	2d\	2b-\
[1C	.	2c\	2cc\
.	.	4B-\	[2ee-i\
.	.	4A/	.
=211	=211	=211	=211
2C/]	0G]	2G/	2ee-\]
2BB-/	.	2d\	2dd\
1C	.	2e-i\	1cc
.	.	4d\	.
.	.	4c\	.
=212	=212	=212	=212
0GGl	0Gl	0dl	0b-l
!!LO:LB:i:g=z
=213||	=213||	=213||	=213||
*>G	*>G	*>G	*>G
*clefF4	*clefGv2	*clefGv2	*clefG2
*M2/1	*M2/1	*M2/1	*M2/1
*met(C|)	*met(C|)	*met(C|)	*met(C|)
*k[b-]	*k[b-]	*k[b-]	*k[b-]
!!section: Gloria, laus
!!!OMD: Gloria, laus
0r	0r	0G	0r
=214	=214	=214	=214
0r	0r	0d	0f
=215	=215	=215	=215
0r	0r	0e-i	1g
.	.	.	1a
=216	=216	=216	=216
0GG	0r	1d	0b-
.	.	[1d	.
=217	=217	=217	=217
0D	0F	0d_	0a
=218	=218	=218	=218
0E-i	0G	1d]	0g
.	.	1c	.
=219	=219	=219	=219
0D	0A	1d	1f
.	.	1r	2r
.	.	.	[2d/
=220	=220	=220	=220
0D	1r	0d	2d/]
.	.	.	2e/
.	1B-	.	2f/
.	.	.	2g/
=221	=221	=221	=221
0r	1A	0c	2a/
.	.	.	2.cc\
.	1F	.	.
.	.	.	4b-\
.	.	.	[2a/
=222	=222	=222	=222
0r	0G	0B-	2a/]
.	.	.	4g/
.	.	.	4f/
.	.	.	2.e/
.	.	.	4d/
=223	=223	=223	=223
0D	0F	1A	3%4fV
.	.	1B-	.
.	.	.	3%2dZ
=224	=224	=224	=224
0C	0r	0c	3%2.eV
.	.	.	3f/
.	.	.	3g/
.	.	.	3a/Z
=225	=225	=225	=225
0BB-	0r	0d	3%2.b-V
.	.	.	3a/
.	.	.	3g/
.	.	.	3f/Z
=226	=226	=226	=226
0C	[0c	0G	1.e
.	.	.	[2g/
=227	=227	=227	=227
0C	0c]	0r	2g/]
.	.	.	2f/
.	.	.	2.e/
.	.	.	4d/
=228	=228	=228	=228
0D	1B-	1d	2f/
.	.	.	2g/
.	2A/	[1d	4a/
.	.	.	4g/
.	[2B-\	.	4f/
.	.	.	4e/
=229	=229	=229	=229
0r	2B-\]	2d\]	2d/
.	4A/	4c\	1g
.	4G/	4B-\	.
.	1A	1c	.
.	.	.	2f#i/
=230	=230	=230	=230
0BB-	1r	2B-\	2g/
.	.	2.d\	2.b-\
.	1G	.	.
.	.	4e\	4cc\
.	.	[2f\	2dd\
=231	=231	=231	=231
0AA	2.A/	4f\]	2cc\
.	.	4e\	.
.	.	2.c\	2.a/
.	4B-\	.	.
.	[1c	.	.
.	.	4d\	4b-\
.	.	4e\	2cc\
.	.	4f\	.
=232	=232	=232	=232
0GG	2c\]	2g\	2b-\
.	4B-\	4f\	2.g/
.	4A/	4e\	.
.	1B-	1d	.
.	.	.	4f/
.	.	.	2d/
=233	=233	=233	=233
0C	0c	1c	2e/
.	.	.	2f/
.	.	2r	1g
.	.	[2e\	.
=234	=234	=234	=234
0C	0r	4e\]	0cc
.	.	4f\	.
.	.	1g	.
.	.	4f\	.
.	.	4e\	.
=235	=235	=235	=235
0GG	0r	2.d\	0b-
.	.	4c\	.
.	.	2B-\	.
.	.	2G/	.
=236	=236	=236	=236
0r	0c	2A/	0a
.	.	2.F/	.
.	.	4E/	.
.	.	2F/	.
=237	=237	=237	=237
0r	0B-	2G/	1g
.	.	2.E-/	.
.	.	.	[1g
.	.	4F/	.
.	.	2G/	.
=238	=238	=238	=238
0r	0A	1D	1g]
.	.	2r	1f#i
.	.	2c\	.
=239	=239	=239	=239
0r	1G	2B-\	2g/
.	.	2.d\	2.b-\
.	[1G	.	.
.	.	4c\	4cc\
.	.	4B-\	[2dd\
.	.	4A/	.
=240	=240	=240	=240
0r	1G]	1B-	2dd\]
.	.	.	4cc\
.	.	.	4b-\
.	1F#i	2.c\	1a
.	.	4d\	.
=241	=241	=241	=241
0C	1G	1e-	0g
.	1r	2d\	.
.	.	[2c\	.
=242	=242	=242	=242
0C	0G	2c\]	0r
.	.	2B-\	.
.	.	2G/	.
.	.	2A/	.
=243	=243	=243	=243
0BB-	0d	1.B-	0r
.	.	[2d\	.
=244	=244	=244	=244
0r	0e-	2d\]	0g
.	.	4c\	.
.	.	4B-\	.
.	.	1c	.
=245	=245	=245	=245
0r	1d	2B-\	0dd
.	.	1G	.
.	[1d	.	.
.	.	2F/	.
=246	=246	=246	=246
0r	2d\]	1G	0ee-i
.	4c\	.	.
.	4B-\	.	.
.	1c	1A	.
=247	=247	=247	=247
0r	1d	4B-\	1dd
.	.	4c\	.
.	.	4d\	.
.	.	4e\	.
.	1r	2f\	[1dd
.	.	[2g\	.
=248	=248	=248	=248
0r	0r	4g\]	2dd\]
.	.	4f\	.
.	.	4e-i\	4cc\
.	.	4d\	4b-\
.	.	2e-i\	1cc
.	.	4d\	.
.	.	4c\	.
=249	=249	=249	=249
0BB-	0r	2B-\	2dd\
.	.	1d	1b-
.	.	4c\	4a/
.	.	4B-\	4g/
=250	=250	=250	=250
0D	0r	2A/	2f/
.	.	2G/	1g
.	.	1A	.
.	.	.	2f#i/
=251	=251	=251	=251
0r	0d	1G	1g
.	.	1B-	2f/
.	.	.	[2b-\
=252	=252	=252	=252
0r	0c	0F	2b-\]
.	.	.	4a/
.	.	.	4g/
.	.	.	4a/
.	.	.	4g/
.	.	.	4f/
.	.	.	4e/
=253	=253	=253	=253
0D	1.B-	1r	1.d
.	.	[1F	.
.	[2d\	.	[2f/
=254	=254	=254	=254
0D	2d\]	2F/]	2f/]
.	2c\	2E/	2g/
.	2A/	1F	2.a/
.	2B-\	.	.
.	.	.	4g/
=255	=255	=255	=255
0C	0c	3%4GV	2e/
.	.	.	1g
.	.	3%2AZ	.
.	.	.	4f/
.	.	.	4e/
=256	=256	=256	=256
0BB-	0r	3%2.B-V	1d
.	.	3c\Z	1r
.	.	3%2d	.
=257	=257	=257	=257
0C	0r	1.e-i	[0g
.	.	2c\	.
=258	=258	=258	=258
0C	0r	1c	1g]
.	.	2r	[1a
.	.	2e\	.
=259	=259	=259	=259
0D	0r	2f\	1a]
.	.	2.d\	.
.	.	.	[1b-
.	.	4c\	.
.	.	4B-\	.
.	.	4A/	.
=260	=260	=260	=260
0r	0r	2B-\	1b-]
.	.	1G	.
.	.	.	1a
.	.	2F#i/	.
=261	=261	=261	=261
0r	0G	2G/	1.g
.	.	2.E-/	.
.	.	4F/	.
.	.	2G/	4f/
.	.	.	4e/
=262	=262	=262	=262
0r	1A	1D	1f
.	[1B-	1r	2d/
.	.	.	[2g/
=263	=263	=263	=263
0r	1B-]	1G	4g/]
.	.	.	4f/
.	.	.	4e/
.	.	.	4d/
.	1A	1A	2c/
.	.	.	[2cc\
=264	=264	=264	=264
0r	1G	1B-	2cc\]
.	.	.	2b-\
.	1F	[1c	2a/
.	.	.	4g/
.	.	.	4a/
=265	=265	=265	=265
0r	0G	2c\]	4b-\
.	.	.	4a/
.	.	2B-\	4g/
.	.	.	4f/
.	.	[1B-	2.e/
.	.	.	4d/
=266	=266	=266	=266
0r	0F	2B-\]	0f
.	.	4A/	.
.	.	4G/	.
.	.	1A	.
=267	=267	=267	=267
0BB-	0r	3%2B-V	1.d
.	.	3%2F	.
.	.	3%2GZ	.
.	.	.	2e/
=268	=268	=268	=268
0AA	0r	3%2AV	2f/
.	.	.	2g/
.	.	3%2E	.
.	.	.	1a
.	.	3%2FZ	.
=269	=269	=269	=269
0GG	0r	2G/	1b-
.	.	2.B-\	.
.	.	.	2a/
.	.	4c\	.
.	.	2d\	[2g/
=270	=270	=270	=270
0C	0A	4e-i\	4g/]
.	.	4d\	4f/
.	.	4c\	4e/
.	.	4B-\	4d/
.	.	1c	1e
=271	=271	=271	=271
0r	0B-	1d	0d
.	.	[1f	.
=272	=272	=272	=272
0AA	0A	2f\]	1r
.	.	4e\	.
.	.	4d\	.
.	.	1c	1cc
=273	=273	=273	=273
0BB-	1G	2d\	2b-\
.	.	1B-	1dd
.	1F	.	.
.	.	2c\	2cc\
=274	=274	=274	=274
0GG	1G	1e-	2.b-\
.	.	.	4a/
.	[1B-	[1d	1g
=275	=275	=275	=275
0GG	1B-]	2d\]	1r
.	.	2.G/	.
.	1G	.	1b-
.	.	4A/	.
.	.	2B-\	.
=276	=276	=276	=276
0FF	0A	2c\	2a/
.	.	2A/	1cc
.	.	1c	.
.	.	.	2a/
=277	=277	=277	=277
0GG	1G	2B-\	1b-
.	.	1e-	.
.	[1B-	.	1g
.	.	[2d\	.
=278	=278	=278	=278
0GG	2B-\]	2d\]	1r
.	2A/	2c\	.
.	2G/	2d\	[1b-
.	4F/	[2g\	.
.	4E/	.	.
=279	=279	=279	=279
0r	1D	2g\]	2b-\]
.	.	2f\	2a/
.	2r	2e\	2g/
.	[2d\	4d\	4f/
.	.	4c\	4e/
=280	=280	=280	=280
0r	2d\]	2B-\	1d
.	2B-\	2d\	.
.	2c\	2e\	2r
.	2d\	2f\	[2dd\
=281	=281	=281	=281
0r	2G/	1g	2dd\]
.	2r	.	2b-\
.	2A/	2e\	2cc\
.	2B-\	2d\	2dd\
=282	=282	=282	=282
0r	2c\	2e\	1g
.	2e-\	1g	.
.	1d	.	1a
.	.	2f#i\	.
=283	=283	=283	=283
0r	1.G	2g\	[0gl
.	.	2d\	.
.	.	1e-i	.
.	[2c\	.	.
=284	=284	=284	=284
0r	2c\]	1d	0g_
.	2B-\	.	.
.	2.c\	1c	.
.	4B-\	.	.
=285	=285	=285	=285
[0GGl	[0Gl	0e-i	0g_
=286	=286	=286	=286
0GG]	0G]	0dl	0g]
!!LO:LB:i:g=z
=287||	=287||	=287||	=287||
*>H	*>H	*>H	*>H
*clefF4	*clefGv2	*clefGv2	*clefG2
*M2/1	*M2/1	*M2/1	*M2/1
*met(C|)	*met(C|)	*met(C|)	*met(C|)
*k[b-]	*k[b-]	*k[b-e-]	*k[b-]
!!section: O clemens
!!!OMD: O clemens
0r	0r	1G	[0g
.	.	1c	.
=288	=288	=288	=288
1GG	0r	1B-	0g_
1C	.	1e-	.
=289	=289	=289	=289
1BB-	0r	2d\	0g]
.	.	1d	.
1E-i	.	.	.
.	.	2c\	.
=290	=290	=290	=290
1.D	[0d	2d\	[0f
.	.	1B-	.
[2F\	.	4A/	.
.	.	4G/	.
=291	=291	=291	=291
2F\]	0d_	4A/	0f]
.	.	4G/	.
2G\	.	4F/	.
.	.	4E-/	.
1A	.	1D	.
=292	=292	=292	=292
1G	0d]	2r	0g
.	.	1B-	.
2GG/	.	.	.
2BB-/	.	2G/	.
=293	=293	=293	=293
1C	[0c	2A/	0r
.	.	4G/	.
.	.	4F/	.
2.C/	.	1E-	.
4BB-/	.	.	.
=294	=294	=294	=294
2AA/	0c]	2F/	0r
2GG/	.	2G/	.
2AA/	.	1E-	.
2C/	.	.	.
=295	=295	=295	=295
2BB-/	0d	2D/	0r
2C/	.	1G	.
1D	.	.	.
.	.	2F#i/	.
=296	=296	=296	=296
2GG/	0r	2G/	[0b-
2.G\	.	2.B-\	.
4A\	.	4c\	.
[2B-\	.	[2d\	.
=297	=297	=297	=297
4B-\]	0r	4d\]	0b-]
4A\	.	4c\	.
4G\	.	4B-\	.
4F\	.	4A/	.
1G	.	2B-\	.
.	.	4A/	.
.	.	4G/	.
=298	=298	=298	=298
2A\	[0f	2F/	1a
1F	.	1A	.
.	.	.	[1cc
2E\	.	2G/	.
=299	=299	=299	=299
2D\	0f]	2F/	2cc\]
2C/	.	2E-/	4b-\
.	.	.	4a/
1D	.	1F	1b-
=300	=300	=300	=300
0C	1e	2G/	[0cc
.	.	2A/	.
.	[1g	2G/	.
.	.	[2c\	.
=301	=301	=301	=301
0r	2g\]	4c\]	0cc]
.	.	4B-\	.
.	4f\	4A/	.
.	4e\	4G/	.
.	1f	1A	.
=302	=302	=302	=302
0G	[0g	2G/	[0b-
.	.	2.B-\	.
.	.	4c\	.
.	.	[2d\	.
=303	=303	=303	=303
0E-	0g]	2d\]	1b-]
.	.	2c\	.
.	.	2.c\	1g
.	.	4B-\	.
=304	=304	=304	=304
2.D\	[0f	1d	1.a
4E\	.	.	.
2F\	.	2c\	.
[2BB-/	.	[2d\	[2b-\
=305	=305	=305	=305
2BB-/]	1f]	4d\]	2b-\]
.	.	4c\	.
2C/	.	1c	4a/
.	.	.	4g/
1D	1d	.	2.f/
.	.	2Bni\	.
.	.	.	4e/
=306	=306	=306	=306
1C	1.e	2c\	1.g
.	.	2.c\	.
1r	.	.	.
.	.	4B-\	.
.	[2f\	[2A/	[2a/
=307	=307	=307	=307
1r	2f\]	2A/]	4a/]
.	.	.	4b-\
.	4e\	4G/	2.cc\
.	4d\	4F/	.
1G	2.c\	1E-	.
.	.	.	4b-\
.	.	.	4a/
.	4B-\	.	4g/
=308	=308	=308	=308
2A\	0d	1D	1f
1B-	.	.	.
.	.	2d\	1g
4A\	.	2e-\	.
4G\	.	.	.
=309	=309	=309	=309
2F\	1r	2f\	2a/
1BB-	.	1d	1b-
.	[1d	.	.
2C/	.	4c\	4a/
.	.	4B-\	4g/
=310	=310	=310	=310
2D\	2d\]	2A/	2f/
2E-i\	2c\	2G/	1g
1D	1d	1A	.
.	.	.	2f#i/
=311	=311	=311	=311
0GGl	0dl	0Gl	0gl
!!LO:LB:i:g=z
=312||	=312||	=312||	=312||
*>I	*>I	*>I	*>I
*clefF4	*clefGv2	*clefGv2	*clefG2
*M2/1	*M2/1	*M2/1	*M2/1
*met(C)	*met(C)	*met(C)	*met(C)
*k[b-]	*k[b-]	*k[b-]	*k[b-]
!!section: O dulcis
!!!OMD: O dulcis
0r	0r	1d	0dd
.	.	1f	.
=313	=313	=313	=313
1G	0r	2e\	2g/
.	.	2.d\	2.b-\
1G	.	.	.
.	.	4c\	4a/
.	.	2d\	4g/
.	.	.	4f/
=314	=314	=314	=314
1C	1r	4e\	1g
.	.	4d\	.
.	.	4c\	.
.	.	4B-\	.
1D	[1d	1A	1f
=315	=315	=315	=315
1F	1d]	2r	1a
.	.	1d	.
1E	1G	.	1g
.	.	2c\	.
=316	=316	=316	=316
1D	1B-	1d	2r
.	.	.	2.f/
1r	1A	1c	.
.	.	.	4g/
.	.	.	2a/
=317	=317	=317	=317
*	*	*	*M2/1
*	*	*	*met(3)
0r	0G	2B-\	3.b-\
.	.	2.d\	6a/
.	.	.	6g/
.	.	.	6f/
.	.	.	3g/
.	.	4c\	.
.	.	.	3%2e
.	.	2B-\	.
=318	=318	=318	=318
*	*	*	*M2/1
*	*	*	*met(C)
1D	1F	1A	1f
[1E-	[1G	2G/	1r
.	.	[2B-\	.
=319	=319	=319	=319
1E-]	2G/]	4B-\]	1g
.	.	4A/	.
.	2.c\	2G/	.
1D	.	2A/	1f
.	4A/	.	.
.	2B-\	2F/	.
=320	=320	=320	=320
1C	1c	1G	2e/
.	.	.	2g/
1D	1r	2r	2f/
.	.	2F/	[2d/
=321	=321	=321	=321
1BB-	0r	2G/	4d/]
.	.	.	4c/
.	.	1B-	2f/
1C	.	.	1e
.	.	2A/	.
=322	=322	=322	=322
*	*	*M2/1	*
*	*	*met(3)	*
1BB-	0r	3.B-\	2d/
.	.	6c\	2r
.	.	3d\	.
1r	.	3%2e	1cc
.	.	3f\	.
=323	=323	=323	=323
0r	1r	3.g\	1b-
.	.	6f\	.
.	.	3d\	.
.	1c	3f\	1cc
.	.	3.e\	.
.	.	6d\	.
=324	=324	=324	=324
*	*	*M2/1	*
*	*	*met(C)	*
0r	1B-	1d	1dd
.	1c	1e	1g
=325	=325	=325	=325
1BB-	1d	2d\	1f
.	.	2f\	.
1C	1G	4e\	1r
.	.	4d\	.
.	.	4c\	.
.	.	4B-\	.
=326	=326	=326	=326
1D	1F	1A	1a
1GG	1r	2G/	1b-
.	.	2B-\	.
=327	=327	=327	=327
1AA	1r	2A/	1cc
.	.	2F/	.
1BB-	1G	2D/	4b-\
.	.	.	4a/
.	.	[2d\	4g/
.	.	.	4f/
=328	=328	=328	=328
1C	1A	4d\]	1e
.	.	4c\	.
.	.	2c\	.
1BB-	1B-	1d	1d
=329	=329	=329	=329
*	*M2/1	*	*
*	*met(3)	*	*
1AA	3%2c	2e\	1r
.	.	2f\	.
.	3A/	.	.
2GG/	3B-\	2.d\	1g
.	3G/	.	.
[2GG/	.	.	.
.	3B-\	.	.
.	.	4c\	.
=330	=330	=330	=330
2GG/]	3c\	2A/	1a
.	3%2A	.	.
2FF#i/	.	2c\	.
*	*	*M2/1	*M2/1
*	*	*met(3)	*met(3)
1GG	3%2G	2B-\	3%2b-
.	.	6c\	.
.	3E-i/	3e-i\	3g/
=331	=331	=331	=331
0r	3F/	3d\	3%2a
.	3D/	2f\	.
.	3F/	.	3a/
.	.	6e-i\	.
.	3G/	3%2d	2b-\
.	3%2E-i	.	.
.	.	.	6a/
.	.	3c\	3g/
=332	=332	=332	=332
0r	3%2D	3%2d	3%2f
.	3r	3c\	[3a/
.	3%2D	3A/	3a/]
.	.	3d\	3f/
.	3E-/	3B-\	3g/
=333	=333	=333	=333
0r	3C/	3c\	3e/
.	3D/	3A/	3f/
.	3BB-/	3B-\	3d/
.	3E-i/	3G/	3%2g
.	3%2D	3%2A	.
.	.	.	3f#i/
=334	=334	=334	=334
*	*M2/1	*M2/1	*M2/1
*	*met(C)	*met(C)	*met(C)
0GGl	0Gl	0Gl	0gl
==	==	==	==
*-	*-	*-	*-
!!!RDF**kern: l=long note in original notation
!!!RDF**kern: i=editorial accidental
!!!RDF**kern: V=start of tuplet marker
!!!RDF**kern: Z=end of tuplet marker
!!!ENC:	Chris Gage 09-23-2014
!!!END:	2014/10/07/
!!!EED:	Jesse Rodin
!!!EEV:	2014/10/23/
!!!ONB:	Translated from MusicXML and edited on 2014/10/23/ by Craig Sapp
!!muse2ps: C^@{COA}?^i2I150v85,85,85,150Q16
